assets/Logo.svg

<svg width="146" height="36" viewBox="0 0 146 36" fill="none" xmlns="http://www.w3.org/2000/svg">
<path d="M59.82 25.18C58.46 25.18 57.2667 24.8867 56.24 24.3C55.2267 23.7133 54.4467 22.8733 53.9 21.78C53.3533 20.6867 53.08 19.4067 53.08 17.94C53.08 16.4733 53.3533 15.2 53.9 14.12C54.4467 13.0267 55.2267 12.1867 56.24 11.6C57.2667 11.0133 58.46 10.72 59.82 10.72C60.7 10.72 61.5267 10.8533 62.3 11.12C63.0733 11.3733 63.76 11.7467 64.36 12.24C64.5333 12.3733 64.6533 12.5133 64.72 12.66C64.7867 12.8067 64.82 12.9867 64.82 13.2C64.82 13.4933 64.74 13.74 64.58 13.94C64.42 14.14 64.2267 14.24 64 14.24C63.7333 14.24 63.46 14.1467 63.18 13.96C62.6067 13.5333 62.0733 13.24 61.58 13.08C61.0867 12.9067 60.54 12.82 59.94 12.82C58.5533 12.82 57.5 13.2533 56.78 14.12C56.0733 14.9867 55.72 16.26 55.72 17.94C55.72 19.6333 56.0733 20.9133 56.78 21.78C57.5 22.6467 58.5533 23.08 59.94 23.08C60.5133 23.08 61.04 22.9933 61.52 22.82C62.0133 22.6467 62.5667 22.3533 63.18 21.94C63.3133 21.86 63.4467 21.7933 63.58 21.74C63.7133 21.6867 63.8533 21.66 64 21.66C64.2267 21.66 64.42 21.76 64.58 21.96C64.74 22.16 64.82 22.4067 64.82 22.7C64.82 22.9 64.7867 23.08 64.72 23.24C64.6533 23.3867 64.5333 23.5267 64.36 23.66C63.76 24.1533 63.0733 24.5333 62.3 24.8C61.5267 25.0533 60.7 25.18 59.82 25.18ZM71.1194 25.16C70.1194 25.16 69.2394 24.9533 68.4794 24.54C67.7327 24.1267 67.1527 23.5333 66.7394 22.76C66.326 21.9867 66.1194 21.0867 66.1194 20.06C66.1194 19.0333 66.326 18.14 66.7394 17.38C67.1527 16.6067 67.7327 16.0133 68.4794 15.6C69.2394 15.1867 70.1194 14.98 71.1194 14.98C72.1194 14.98 72.9927 15.1867 73.7394 15.6C74.4994 16.0133 75.0794 16.6067 75.4794 17.38C75.8927 18.14 76.0994 19.0333 76.0994 20.06C76.0994 21.0867 75.8927 21.9867 75.4794 22.76C75.0794 23.5333 74.4994 24.1267 73.7394 24.54C72.9927 24.9533 72.1194 25.16 71.1194 25.16ZM71.0994 23.22C71.9127 23.22 72.5327 22.9533 72.9594 22.42C73.386 21.8867 73.5994 21.1 73.5994 20.06C73.5994 19.0333 73.386 18.2533 72.9594 17.72C72.5327 17.1733 71.9194 16.9 71.1194 16.9C70.3194 16.9 69.6994 17.1733 69.2594 17.72C68.8327 18.2533 68.6194 19.0333 68.6194 20.06C68.6194 21.1 68.8327 21.8867 69.2594 22.42C69.686 22.9533 70.2994 23.22 71.0994 23.22ZM89.7833 14.98C90.8499 14.98 91.6633 15.3 92.2233 15.94C92.7966 16.5667 93.0833 17.5867 93.0833 19V23.92C93.0833 24.3067 92.9633 24.6067 92.7233 24.82C92.4966 25.02 92.1966 25.12 91.8233 25.12C91.4633 25.12 91.1633 25.02 90.9233 24.82C90.6966 24.6067 90.5833 24.3067 90.5833 23.92V19C90.5833 18.2667 90.4499 17.7467 90.1833 17.44C89.9299 17.12 89.5366 16.96 89.0033 16.96C88.3499 16.96 87.8299 17.1867 87.4433 17.64C87.0566 18.08 86.8633 18.6867 86.8633 19.46V23.92C86.8633 24.3067 86.7433 24.6067 86.5033 24.82C86.2766 25.02 85.9833 25.12 85.6233 25.12C85.2633 25.12 84.9633 25.02 84.7233 24.82C84.4833 24.6067 84.3633 24.3067 84.3633 23.92V19C84.3633 18.2667 84.2299 17.7467 83.9633 17.44C83.7099 17.12 83.3166 16.96 82.7833 16.96C82.1299 16.96 81.6099 17.1867 81.2233 17.64C80.8499 18.08 80.6633 18.6867 80.6633 19.46V23.92C80.6633 24.3067 80.5433 24.6067 80.3033 24.82C80.0633 25.02 79.7633 25.12 79.4033 25.12C79.0433 25.12 78.7433 25.02 78.5033 24.82C78.2766 24.6067 78.1633 24.3067 78.1633 23.92V16.18C78.1633 15.8067 78.2833 15.52 78.5233 15.32C78.7633 15.12 79.0633 15.02 79.4233 15.02C79.7699 15.02 80.0499 15.12 80.2633 15.32C80.4899 15.5067 80.6033 15.78 80.6033 16.14V16.62C80.9099 16.0867 81.3166 15.68 81.8233 15.4C82.3433 15.12 82.9366 14.98 83.6033 14.98C85.0699 14.98 86.0499 15.5933 86.5433 16.82C86.8366 16.26 87.2699 15.8133 87.8433 15.48C88.4166 15.1467 89.0633 14.98 89.7833 14.98ZM107.244 14.98C108.311 14.98 109.124 15.3 109.684 15.94C110.258 16.5667 110.544 17.5867 110.544 19V23.92C110.544 24.3067 110.424 24.6067 110.184 24.82C109.958 25.02 109.658 25.12 109.284 25.12C108.924 25.12 108.624 25.02 108.384 24.82C108.158 24.6067 108.044 24.3067 108.044 23.92V19C108.044 18.2667 107.911 17.7467 107.644 17.44C107.391 17.12 106.998 16.96 106.464 16.96C105.811 16.96 105.291 17.1867 104.904 17.64C104.518 18.08 104.324 18.6867 104.324 19.46V23.92C104.324 24.3067 104.204 24.6067 103.964 24.82C103.738 25.02 103.444 25.12 103.084 25.12C102.724 25.12 102.424 25.02 102.184 24.82C101.944 24.6067 101.824 24.3067 101.824 23.92V19C101.824 18.2667 101.691 17.7467 101.424 17.44C101.171 17.12 100.778 16.96 100.244 16.96C99.5909 16.96 99.0709 17.1867 98.6842 17.64C98.3109 18.08 98.1242 18.6867 98.1242 19.46V23.92C98.1242 24.3067 98.0042 24.6067 97.7642 24.82C97.5242 25.02 97.2242 25.12 96.8642 25.12C96.5042 25.12 96.2042 25.02 95.9642 24.82C95.7376 24.6067 95.6242 24.3067 95.6242 23.92V16.18C95.6242 15.8067 95.7442 15.52 95.9842 15.32C96.2242 15.12 96.5242 15.02 96.8842 15.02C97.2309 15.02 97.5109 15.12 97.7242 15.32C97.9509 15.5067 98.0642 15.78 98.0642 16.14V16.62C98.3709 16.0867 98.7776 15.68 99.2842 15.4C99.8042 15.12 100.398 14.98 101.064 14.98C102.531 14.98 103.511 15.5933 104.004 16.82C104.298 16.26 104.731 15.8133 105.304 15.48C105.878 15.1467 106.524 14.98 107.244 14.98ZM120.805 15.02C121.192 15.02 121.498 15.1267 121.725 15.34C121.952 15.5533 122.065 15.84 122.065 16.2V23.96C122.065 24.3067 121.945 24.5867 121.705 24.8C121.478 25.0133 121.178 25.12 120.805 25.12C120.445 25.12 120.158 25.02 119.945 24.82C119.732 24.62 119.625 24.3467 119.625 24V23.5C119.318 24.0333 118.905 24.4467 118.385 24.74C117.865 25.02 117.278 25.16 116.625 25.16C114.225 25.16 113.025 23.8133 113.025 21.12V16.2C113.025 15.84 113.138 15.5533 113.365 15.34C113.592 15.1267 113.892 15.02 114.265 15.02C114.652 15.02 114.958 15.1267 115.185 15.34C115.412 15.5533 115.525 15.84 115.525 16.2V21.14C115.525 21.8333 115.665 22.3467 115.945 22.68C116.225 23.0133 116.665 23.18 117.265 23.18C117.958 23.18 118.512 22.9533 118.925 22.5C119.352 22.0333 119.565 21.42 119.565 20.66V16.2C119.565 15.84 119.678 15.5533 119.905 15.34C120.132 15.1267 120.432 15.02 120.805 15.02ZM130.347 14.98C131.521 14.98 132.394 15.3133 132.967 15.98C133.541 16.6467 133.827 17.6533 133.827 19V23.92C133.827 24.2933 133.714 24.5867 133.487 24.8C133.274 25.0133 132.974 25.12 132.587 25.12C132.201 25.12 131.894 25.0133 131.667 24.8C131.441 24.5867 131.327 24.2933 131.327 23.92V19.14C131.327 18.38 131.181 17.8267 130.887 17.48C130.607 17.1333 130.161 16.96 129.547 16.96C128.827 16.96 128.247 17.1867 127.807 17.64C127.381 18.0933 127.167 18.7 127.167 19.46V23.92C127.167 24.2933 127.054 24.5867 126.827 24.8C126.601 25.0133 126.294 25.12 125.907 25.12C125.521 25.12 125.214 25.0133 124.987 24.8C124.774 24.5867 124.667 24.2933 124.667 23.92V16.18C124.667 15.8333 124.781 15.5533 125.007 15.34C125.234 15.1267 125.541 15.02 125.927 15.02C126.274 15.02 126.554 15.1267 126.767 15.34C126.994 15.54 127.107 15.8067 127.107 16.14V16.68C127.441 16.1333 127.887 15.7133 128.447 15.42C129.007 15.1267 129.641 14.98 130.347 14.98ZM144.106 22.32C144.333 22.32 144.513 22.4067 144.646 22.58C144.793 22.7533 144.866 22.9867 144.866 23.28C144.866 23.6933 144.62 24.04 144.126 24.32C143.673 24.5733 143.16 24.78 142.586 24.94C142.013 25.0867 141.466 25.16 140.946 25.16C139.373 25.16 138.126 24.7067 137.206 23.8C136.286 22.8933 135.826 21.6533 135.826 20.08C135.826 19.08 136.026 18.1933 136.426 17.42C136.826 16.6467 137.386 16.0467 138.106 15.62C138.84 15.1933 139.666 14.98 140.586 14.98C141.466 14.98 142.233 15.1733 142.886 15.56C143.54 15.9467 144.046 16.4933 144.406 17.2C144.766 17.9067 144.946 18.74 144.946 19.7C144.946 20.2733 144.693 20.56 144.186 20.56H138.286C138.366 21.48 138.626 22.16 139.066 22.6C139.506 23.0267 140.146 23.24 140.986 23.24C141.413 23.24 141.786 23.1867 142.106 23.08C142.44 22.9733 142.813 22.8267 143.226 22.64C143.626 22.4267 143.92 22.32 144.106 22.32ZM140.646 16.74C139.966 16.74 139.42 16.9533 139.006 17.38C138.606 17.8067 138.366 18.42 138.286 19.22H142.806C142.78 18.4067 142.58 17.7933 142.206 17.38C141.833 16.9533 141.313 16.74 140.646 16.74Z" fill="#372865"/>
<path d="M29.9355 6.0525C29.418 6.0165 28.9125 6 28.4175 6C17.667 6 11.5455 14.196 9.3195 20.7915L15.228 26.6985C22.014 24.27 30 18.375 30 7.74C30 7.1895 29.979 6.6285 29.9355 6.0525ZM15.8385 23.775L12.2355 20.172C13.7625 16.5975 18.1005 8.9895 27.4845 8.5215C27.1695 15.7395 22.4325 20.9355 15.8385 23.775ZM22.677 25.698C21.993 26.1645 21.315 26.586 20.643 26.961C20.409 28.074 19.815 29.2635 18.954 30.276C18.9525 29.556 18.7515 28.83 18.4005 28.1025C17.781 28.383 17.193 28.6245 16.632 28.8375C17.4585 30.9735 16.617 32.5515 15.4875 34.0305C17.1075 33.909 18.8085 33.1155 20.1465 31.7745C21.594 30.3315 22.6065 28.2465 22.677 25.698ZM7.9035 17.61C7.1805 17.262 6.456 17.064 5.739 17.0595C6.7425 16.209 7.9185 15.618 9.021 15.378C9.414 14.6865 9.855 14.0055 10.3185 13.3365C7.77 13.4055 5.6835 14.421 4.2375 15.8655C2.898 17.205 2.106 18.906 1.983 20.5245C3.462 19.395 5.0415 18.555 7.1775 19.3815C7.395 18.795 7.635 18.204 7.9035 17.61ZM17.5755 18.4395C17.0865 17.952 17.0865 17.16 17.5755 16.6725C18.063 16.1835 18.855 16.1835 19.3425 16.6725C19.8315 17.1615 19.8315 17.9535 19.3425 18.441C18.8535 18.9285 18.063 18.9285 17.5755 18.4395ZM23.7615 12.252C22.7865 11.277 21.2025 11.277 20.2275 12.252C19.251 13.2285 19.251 14.8125 20.2275 15.7875C21.2025 16.764 22.7865 16.764 23.763 15.7875C24.738 14.8125 24.738 13.2285 23.7615 12.252ZM21.375 14.64C21.033 14.298 21.033 13.743 21.375 13.4025C21.7155 13.0605 22.272 13.0605 22.614 13.4025C22.9545 13.743 22.953 14.298 22.614 14.64C22.272 14.9805 21.717 14.9805 21.375 14.64ZM2.4615 30.4725L1.329 29.34L7.8405 22.8555L8.973 23.988L2.4615 30.4725ZM8.6835 32.793L7.551 31.6605L12.096 27.0795L13.23 28.212L8.6835 32.793ZM1.1325 36L0 34.8675L8.0595 26.8215L9.1935 27.954L1.1325 36ZM32.757 14.5635C32.475 15.4905 31.7475 16.2165 30.8205 16.5C31.7475 16.782 32.475 17.508 32.757 18.4365C33.0405 17.508 33.7665 16.782 34.6935 16.5C33.7665 16.218 33.0405 15.492 32.757 14.5635ZM10.7745 4.8075C10.404 6.0225 9.453 6.972 8.2395 7.3425C9.4545 7.713 10.404 8.664 10.7745 9.8775C11.1465 8.664 12.096 7.713 13.3095 7.3425C12.0945 6.972 11.1465 6.0225 10.7745 4.8075ZM8.034 0C7.7355 0.9735 6.975 1.7355 6 2.0325C6.975 2.331 7.7355 3.093 8.034 4.065C8.331 3.0915 9.093 2.3295 10.065 2.0325C9.093 1.7355 8.3325 0.9735 8.034 0ZM16.1145 0C15.6405 1.5525 14.424 2.769 12.87 3.2445C14.424 3.7185 15.6405 4.9335 16.1145 6.489C16.5885 4.935 17.805 3.72 19.3575 3.2445C17.805 2.769 16.59 1.5525 16.1145 0ZM32.757 20.46C32.283 22.014 31.0665 23.229 29.5125 23.7045C31.0665 24.1785 32.283 25.4475 32.757 27C33.231 25.446 34.4475 24.1785 36 23.7045C34.4475 23.229 33.231 22.014 32.757 20.46Z" fill="#372865"/>
</svg>

<svg width="146" height="36" fill="none" xmlns="http://www.w3.org/2000/svg"><path d="M59.82 25.18c-1.36 0-2.553-.293-3.58-.88-1.013-.587-1.793-1.427-2.34-2.52-.547-1.093-.82-2.373-.82-3.84 0-1.467.273-2.74.82-3.82.547-1.093 1.327-1.933 2.34-2.52 1.027-.587 2.22-.88 3.58-.88.88 0 1.707.133 2.48.4.773.253 1.46.627 2.06 1.12.173.133.293.273.36.42.067.147.1.327.1.54 0 .293-.08.54-.24.74-.16.2-.353.3-.58.3-.267 0-.54-.093-.82-.28-.573-.427-1.107-.72-1.6-.88a4.921 4.921 0 0 0-1.64-.26c-1.387 0-2.44.433-3.16 1.3-.707.867-1.06 2.14-1.06 3.82 0 1.693.353 2.973 1.06 3.84.72.867 1.773 1.3 3.16 1.3.573 0 1.1-.087 1.58-.26.493-.173 1.047-.467 1.66-.88.133-.08.267-.147.4-.2a1.12 1.12 0 0 1 .42-.08c.227 0 .42.1.58.3.16.2.24.447.24.74 0 .2-.033.38-.1.54a1.147 1.147 0 0 1-.36.42 6.6 6.6 0 0 1-2.06 1.14 7.92 7.92 0 0 1-2.48.38Zm11.3-.02c-1 0-1.88-.207-2.64-.62a4.306 4.306 0 0 1-1.74-1.78c-.414-.773-.62-1.673-.62-2.7 0-1.027.206-1.92.62-2.68a4.306 4.306 0 0 1 1.74-1.78c.76-.413 1.64-.62 2.64-.62 1 0 1.873.207 2.62.62a4.152 4.152 0 0 1 1.74 1.78c.413.76.62 1.653.62 2.68 0 1.027-.207 1.927-.62 2.7-.4.773-.98 1.367-1.74 1.78-.747.413-1.62.62-2.62.62Zm-.02-1.94c.813 0 1.433-.267 1.86-.8.426-.533.64-1.32.64-2.36 0-1.027-.214-1.807-.64-2.34-.427-.547-1.04-.82-1.84-.82s-1.42.273-1.86.82c-.427.533-.64 1.313-.64 2.34 0 1.04.213 1.827.64 2.36.426.533 1.04.8 1.84.8Zm18.683-8.24c1.067 0 1.88.32 2.44.96.574.627.86 1.647.86 3.06v4.92c0 .387-.12.687-.36.9-.226.2-.526.3-.9.3-.36 0-.66-.1-.9-.3-.226-.213-.34-.513-.34-.9V19c0-.733-.133-1.253-.4-1.56-.253-.32-.646-.48-1.18-.48-.653 0-1.173.227-1.56.68-.386.44-.58 1.047-.58 1.82v4.46c0 .387-.12.687-.36.9-.226.2-.52.3-.88.3s-.66-.1-.9-.3c-.24-.213-.36-.513-.36-.9V19c0-.733-.133-1.253-.4-1.56-.253-.32-.646-.48-1.18-.48-.653 0-1.173.227-1.56.68-.373.44-.56 1.047-.56 1.82v4.46c0 .387-.12.687-.36.9-.24.2-.54.3-.9.3s-.66-.1-.9-.3c-.226-.213-.34-.513-.34-.9v-7.74c0-.373.12-.66.36-.86.24-.2.54-.3.9-.3.347 0 .627.1.84.3.227.187.34.46.34.82v.48c.307-.533.714-.94 1.22-1.22.52-.28 1.114-.42 1.78-.42 1.467 0 2.447.613 2.94 1.84a3.304 3.304 0 0 1 1.3-1.34c.574-.333 1.22-.5 1.94-.5Zm17.461 0c1.067 0 1.88.32 2.44.96.574.627.86 1.647.86 3.06v4.92c0 .387-.12.687-.36.9-.226.2-.526.3-.9.3-.36 0-.66-.1-.9-.3-.226-.213-.34-.513-.34-.9V19c0-.733-.133-1.253-.4-1.56-.253-.32-.646-.48-1.18-.48-.653 0-1.173.227-1.56.68-.386.44-.58 1.047-.58 1.82v4.46c0 .387-.12.687-.36.9-.226.2-.52.3-.88.3s-.66-.1-.9-.3c-.24-.213-.36-.513-.36-.9V19c0-.733-.133-1.253-.4-1.56-.253-.32-.646-.48-1.18-.48-.653 0-1.173.227-1.56.68-.373.44-.56 1.047-.56 1.82v4.46c0 .387-.12.687-.36.9-.24.2-.54.3-.9.3s-.66-.1-.9-.3c-.226-.213-.34-.513-.34-.9v-7.74c0-.373.12-.66.36-.86.24-.2.54-.3.9-.3.347 0 .627.1.84.3.227.187.34.46.34.82v.48c.307-.533.714-.94 1.22-1.22.52-.28 1.114-.42 1.78-.42 1.467 0 2.447.613 2.94 1.84a3.311 3.311 0 0 1 1.3-1.34c.574-.333 1.22-.5 1.94-.5Zm13.561.04c.387 0 .693.107.92.32.227.213.34.5.34.86v7.76c0 .347-.12.627-.36.84-.227.213-.527.32-.9.32-.36 0-.647-.1-.86-.3-.213-.2-.32-.473-.32-.82v-.5a3.26 3.26 0 0 1-1.24 1.24c-.52.28-1.107.42-1.76.42-2.4 0-3.6-1.347-3.6-4.04V16.2c0-.36.113-.647.34-.86.227-.213.527-.32.9-.32.387 0 .693.107.92.32.227.213.34.5.34.86v4.94c0 .693.14 1.207.42 1.54.28.333.72.5 1.32.5.693 0 1.247-.227 1.66-.68.427-.467.64-1.08.64-1.84V16.2c0-.36.113-.647.34-.86.227-.213.527-.32.9-.32Zm9.542-.04c1.174 0 2.047.333 2.62 1 .574.667.86 1.673.86 3.02v4.92c0 .373-.113.667-.34.88-.213.213-.513.32-.9.32-.386 0-.693-.107-.92-.32-.226-.213-.34-.507-.34-.88v-4.78c0-.76-.146-1.313-.44-1.66-.28-.347-.726-.52-1.34-.52-.72 0-1.3.227-1.74.68-.426.453-.64 1.06-.64 1.82v4.46c0 .373-.113.667-.34.88-.226.213-.533.32-.92.32-.386 0-.693-.107-.92-.32-.213-.213-.32-.507-.32-.88v-7.74c0-.347.114-.627.34-.84.227-.213.534-.32.92-.32.347 0 .627.107.84.32.227.2.34.467.34.8v.54c.334-.547.78-.967 1.34-1.26.56-.293 1.194-.44 1.9-.44Zm13.759 7.34c.227 0 .407.087.54.26.147.173.22.407.22.7 0 .413-.246.76-.74 1.04a6.99 6.99 0 0 1-1.54.62c-.573.147-1.12.22-1.64.22-1.573 0-2.82-.453-3.74-1.36-.92-.907-1.38-2.147-1.38-3.72 0-1 .2-1.887.6-2.66.4-.773.96-1.373 1.68-1.8.734-.427 1.56-.64 2.48-.64.88 0 1.647.193 2.3.58.654.387 1.16.933 1.52 1.64.36.707.54 1.54.54 2.5 0 .573-.253.86-.76.86h-5.9c.08.92.34 1.6.78 2.04.44.427 1.08.64 1.92.64.427 0 .8-.053 1.12-.16.334-.107.707-.253 1.12-.44.4-.213.694-.32.88-.32Zm-3.46-5.58c-.68 0-1.226.213-1.64.64-.4.427-.64 1.04-.72 1.84h4.52c-.026-.813-.226-1.427-.6-1.84-.373-.427-.893-.64-1.56-.64ZM29.936 6.053A21.85 21.85 0 0 0 28.418 6C17.666 6 11.546 14.196 9.32 20.791l5.908 5.907C22.014 24.27 30 18.375 30 7.74c0-.55-.021-1.112-.064-1.688ZM15.838 23.775l-3.602-3.603c1.526-3.575 5.864-11.183 15.248-11.65-.315 7.217-5.052 12.414-11.646 15.253Zm6.839 1.923c-.684.466-1.362.888-2.034 1.263-.234 1.113-.828 2.303-1.689 3.315-.002-.72-.203-1.446-.553-2.174-.62.281-1.208.523-1.769.735.826 2.137-.015 3.714-1.145 5.194 1.62-.122 3.321-.916 4.66-2.256 1.447-1.444 2.46-3.528 2.53-6.077ZM7.904 17.61c-.723-.348-1.448-.546-2.165-.55 1.003-.851 2.18-1.442 3.282-1.682.393-.691.834-1.373 1.297-2.042-2.548.07-4.634 1.085-6.08 2.53-1.34 1.339-2.132 3.04-2.255 4.659 1.479-1.13 3.058-1.97 5.194-1.143.218-.587.458-1.178.727-1.772Zm9.672.83a1.248 1.248 0 0 1 0-1.768 1.25 1.25 0 1 1 0 1.767Zm6.186-6.188a2.5 2.5 0 1 0-3.535 3.539 2.5 2.5 0 0 0 3.535-3.539Zm-2.387 2.388a.875.875 0 1 1 1.236-1.238.875.875 0 0 1-1.236 1.238ZM2.462 30.472 1.329 29.34l6.511-6.485 1.133 1.133-6.512 6.485Zm6.222 2.321L7.55 31.66l4.545-4.58 1.134 1.132-4.546 4.581ZM1.133 36 0 34.867l8.06-8.045 1.133 1.132L1.133 36Zm31.624-21.437a2.915 2.915 0 0 1-1.936 1.937 2.909 2.909 0 0 1 1.936 1.936 2.912 2.912 0 0 1 1.937-1.936 2.912 2.912 0 0 1-1.937-1.937ZM10.775 4.808a3.814 3.814 0 0 1-2.536 2.535 3.814 3.814 0 0 1 2.535 2.534 3.82 3.82 0 0 1 2.536-2.535 3.814 3.814 0 0 1-2.536-2.534ZM8.034 0A3.06 3.06 0 0 1 6 2.033a3.066 3.066 0 0 1 2.034 2.032 3.059 3.059 0 0 1 2.031-2.033A3.062 3.062 0 0 1 8.034 0Zm8.08 0a4.887 4.887 0 0 1-3.244 3.244 4.878 4.878 0 0 1 3.245 3.245 4.885 4.885 0 0 1 3.243-3.244A4.891 4.891 0 0 1 16.114 0Zm16.643 20.46a4.884 4.884 0 0 1-3.244 3.244c1.553.474 2.77 1.744 3.244 3.296.474-1.554 1.69-2.822 3.243-3.296a4.885 4.885 0 0 1-3.243-3.244Z" fill="#372865"/></svg>
